openmetadata-ui/src/main/resources/ui/src/assets/svg/ic-folder.svg

<svg width="14" height="14" viewBox="0 0 14 14" fill="none" xmlns="http://www.w3.org/2000/svg">
<path fill-rule="evenodd" clip-rule="evenodd" d="M11.5802 11.6H3.76236C3.01629 11.6 2.26788 11.0267 2.05978 10.2958L1.05504 6.76665C0.825064 5.95889 1.33901 5.26039 2.16376 5.26039H2.34262V3.44789C2.34262 2.64821 2.97831 2 3.7626 2H6.6047C6.92856 2 7.28461 2.20992 7.44489 2.49595L7.80412 3.13705C7.83757 3.19675 7.95804 3.26793 8.025 3.26793H11.5778C12.3627 3.26793 13 3.91705 13 4.71613V10.1518C13 10.8886 12.4607 11.4969 11.7627 11.5882C11.7104 11.5951 11.6566 11.5991 11.6013 11.5999C11.5943 11.5999 11.5873 11.6 11.5802 11.6ZM12.2895 8.69062V4.71613C12.2895 4.31737 11.9705 3.99246 11.5778 3.99246H8.025C7.70323 3.99246 7.34727 3.7821 7.18723 3.49651L6.828 2.85541C6.79443 2.79553 6.67402 2.72453 6.60468 2.72453H3.76258C3.37069 2.72453 3.0531 3.04837 3.0531 3.44789V5.26037H9.98162C10.7277 5.26037 11.4761 5.83366 11.6842 6.56462L12.2895 8.69062ZM1.73737 6.56464C1.63932 6.22024 1.81246 5.98491 2.16376 5.98491H9.98164C10.4116 5.98491 10.8819 6.3452 11.0019 6.76665L12.0066 10.2958C12.1047 10.6402 11.9315 10.8755 11.5802 10.8755H3.76236C3.33242 10.8755 2.86207 10.5152 2.7421 10.0937L1.73737 6.56464Z" fill="#37352F"/>
</svg>

<svg xmlns="http://www.w3.org/2000/svg" viewBox="0 0 14 14" fill="none"><path fill="#37352F" fill-rule="evenodd" d="M11.58 11.6H3.762c-.746 0-1.494-.573-1.702-1.304l-1.005-3.53c-.23-.807.284-1.506 1.109-1.506h.179V3.448c0-.8.635-1.448 1.42-1.448h2.842c.324 0 .68.21.84.496l.36.641c.033.06.153.13.22.13h3.553c.785 0 1.422.65 1.422 1.45v5.435a1.439 1.439 0 0 1-1.399 1.448h-.02Zm.71-2.91V4.717a.719.719 0 0 0-.712-.724H8.025c-.322 0-.678-.21-.838-.495l-.359-.642a.333.333 0 0 0-.223-.13H3.763a.716.716 0 0 0-.71.723V5.26h6.929c.746 0 1.494.574 1.702 1.305l.606 2.126ZM1.736 6.566c-.098-.345.075-.58.427-.58h7.818c.43 0 .9.36 1.02.782l1.005 3.529c.098.344-.075.58-.427.58H3.762c-.43 0-.9-.36-1.02-.782l-1.005-3.53Z" clip-rule="evenodd"/></svg>
